packages/foundations/assets/icons/functional/images/buildings/market_32.svg

<svg width="32" height="32" viewBox="0 0 32 32" fill="none" xmlns="http://www.w3.org/2000/svg">
<g clip-path="url(#clip0_184_200)">
<path fill-rule="evenodd" clip-rule="evenodd" d="M6.0009 28C5.73568 28 5.48133 27.8947 5.29379 27.7071C5.10626 27.5196 5.0009 27.2652 5.0009 27C5.0009 26.7348 5.10626 26.4804 5.29379 26.2929C5.48133 26.1054 5.73568 26 6.0009 26V15.373C5.45108 14.9912 5.02245 14.4595 4.76595 13.8412C4.50944 13.2229 4.43584 12.5439 4.5539 11.885L5.8569 5.59501C5.94866 5.14383 6.19387 4.73836 6.55084 4.44757C6.90781 4.15679 7.35448 3.99863 7.8149 4.00001H24.1869C25.0789 4.00001 25.9419 4.62001 26.1459 5.59501L27.4399 11.824C27.4799 12.052 27.5009 12.276 27.5009 12.5C27.5009 13.689 26.9079 14.74 26.0009 15.372V26C26.2661 26 26.5205 26.1054 26.708 26.2929C26.8955 26.4804 27.0009 26.7348 27.0009 27C27.0009 27.513 26.5989 28 26.0009 28H6.0009ZM24.0009 22H8.0009V26H24.0009V22ZM21.9999 15.371C21.3999 15.791 20.7339 16 20.0009 16C19.2679 16 18.6009 15.79 17.9999 15.371C17.3999 15.791 16.7339 16 16.0009 16C15.2679 16 14.6009 15.79 13.9999 15.371C13.3999 15.791 12.7339 16 12.0009 16C11.2679 16 10.6009 15.79 9.9999 15.371C9.3799 15.803 8.7139 16.013 8.0009 16V20H24.0009V16C23.2851 16.0011 22.5863 15.7815 21.9999 15.371ZM24.1869 6.00001H7.8149L6.5209 12.258C6.50804 12.338 6.50168 12.419 6.5019 12.5C6.5019 13.328 7.0659 14 8.0019 14C8.6259 14 9.2919 13.5 10.0009 12.5C10.7029 13.5 11.3709 14 12.0019 14C12.6339 14 13.2999 13.5 14.0009 12.5C14.7269 13.5 15.3949 14 16.0059 14C16.6159 14 17.2809 13.5 18.0009 12.5C18.7109 13.5 19.3789 14 20.0019 14C20.6249 14 21.2919 13.5 22.0009 12.5C22.7259 13.5 23.3929 14 24.0019 14C24.9159 14 25.5019 13.328 25.5019 12.5C25.5019 12.43 25.4839 12.265 25.4769 12.199L24.1869 6.00001Z" fill="#1A1C1F"/>
</g>
<defs>
<clipPath id="clip0_184_200">
<rect width="32" height="32" fill="white"/>
</clipPath>
</defs>
</svg>

<svg xmlns="http://www.w3.org/2000/svg" width="32" height="32" fill="none"><g clip-path="url(#a)"><path fill="#1A1C1F" fill-rule="evenodd" d="M6 28a1 1 0 1 1 0-2V15.373a3.5 3.5 0 0 1-1.446-3.488l1.303-6.29A1.99 1.99 0 0 1 7.815 4h16.372c.892 0 1.755.62 1.959 1.595l1.294 6.229q.06.341.06.676c0 1.189-.592 2.24-1.5 2.872V26a1 1 0 0 1 1 1c0 .513-.401 1-1 1zm18-6H8v4h16zm-2-6.629q-.9.63-2 .629-1.099 0-2-.629-.9.63-2 .629-1.099 0-2-.629-.9.63-2 .629-1.099 0-2-.629-.93.648-2 .629v4h16v-4a3.5 3.5 0 0 1-2-.629M24.187 6H7.815L6.52 12.258a1.5 1.5 0 0 0-.02.242c0 .828.565 1.5 1.5 1.5q.936 0 2-1.5 1.054 1.5 2 1.5.949 0 2-1.5Q15.09 14 16.006 14T18 12.5q1.066 1.5 2 1.5.935 0 2-1.5 1.088 1.5 2 1.5c.915 0 1.5-.672 1.5-1.5 0-.07-.017-.235-.024-.301z" clip-rule="evenodd"/></g><defs><clipPath id="a"><path fill="#fff" d="M0 0h32v32H0z"/></clipPath></defs></svg>
